Simply white circles/scalable/actions/document-save-as.svg

<svg xmlns="http://www.w3.org/2000/svg" width="24" height="24" version="1">
  <defs>
    <linearGradient id="a">
      <stop offset="0"/>
      <stop offset="1" stop-opacity="0"/>
    </linearGradient>
    <linearGradient id="b">
      <stop offset="0" stop-color="#f5f5f5"/>
      <stop offset=".47026" stop-color="#e7e7e7"/>
      <stop offset=".69349" stop-color="#8c8c8c"/>
      <stop offset=".83543" stop-color="#ddd"/>
      <stop offset="1" stop-color="#a8a8a8"/>
    </linearGradient>
    <radialGradient id="c" cx="113.07" cy="97.588" r="2.5631" fx="113.67" fy="98" gradientUnits="userSpaceOnUse">
      <stop offset="0" stop-color="#eee"/>
      <stop offset=".16" stop-color="#cecece"/>
      <stop offset=".4675" stop-color="#888"/>
      <stop offset="1" stop-color="#555"/>
    </radialGradient>
  </defs>
  <path fill="#e6e6e6" d="M4.5.5c-.83333 0-1.9007.6416379-2 1.4316406L.5234375 17.669922c-.01495 0-.0234375.003895-.0234375.015625h23c0-.01176-.008497-.015625-.023438-.015625L21.5 1.9316406C21.40074 1.1416379 20.3333.5 19.5.5h-15zm4 2.09375h7v6h3.111328l-6.611328 7-6.6113281-7H8.5v-6zM23.5 18.5l-23 .001953c.46439 4.04436.23325069 3.980469 1.1503906 3.980469 7.317 0 20.3235034.04823 20.6542974 0C23.149207 22.482375 23.03361 21.88 23.5 18.5zM6 18.910156a1.7111111 1.5777776 0 0 1 1.7109375 1.578125A1.7111111 1.5777776 0 0 1 6 22.066406a1.7111111 1.5777776 0 0 1-1.7109375-1.578125A1.7111111 1.5777776 0 0 1 6 18.910156zm6 0a1.7111111 1.5777776 0 0 1 1.710938 1.578125A1.7111111 1.5777776 0 0 1 12 22.066406a1.7111111 1.5777776 0 0 1-1.710938-1.578125A1.7111111 1.5777776 0 0 1 12 18.910156zm6 0a1.7111111 1.5777776 0 0 1 1.710938 1.578125A1.7111111 1.5777776 0 0 1 18 22.066406a1.7111111 1.5777776 0 0 1-1.710938-1.578125A1.7111111 1.5777776 0 0 1 18 18.910156z"/>
</svg>

<?xml version="1.0" encoding="UTF-8" standalone="no"?>
<!-- Created with Inkscape (http://www.inkscape.org/) -->

<svg
   xmlns:dc="http://purl.org/dc/elements/1.1/"
   xmlns:cc="http://creativecommons.org/ns#"
   xmlns:rdf="http://www.w3.org/1999/02/22-rdf-syntax-ns#"
   xmlns:svg="http://www.w3.org/2000/svg"
   xmlns="http://www.w3.org/2000/svg"
   xmlns:xlink="http://www.w3.org/1999/xlink"
   xmlns:sodipodi="http://sodipodi.sourceforge.net/DTD/sodipodi-0.dtd"
   xmlns:inkscape="http://www.inkscape.org/namespaces/inkscape"
   id="svg2704"
   width="24"
   height="24"
   version="1.0"
   sodipodi:docname="document-save-as.svg"
   inkscape:version="0.92.3 (2405546, 2018-03-11)">
  <metadata
     id="metadata80">
    <rdf:RDF>
      <cc:Work
         rdf:about="">
        <dc:format>image/svg+xml</dc:format>
        <dc:type
           rdf:resource="http://purl.org/dc/dcmitype/StillImage" />
        <dc:title></dc:title>
      </cc:Work>
    </rdf:RDF>
  </metadata>
  <sodipodi:namedview
     pagecolor="#ffffff"
     bordercolor="#666666"
     borderopacity="1"
     objecttolerance="10"
     gridtolerance="10"
     guidetolerance="10"
     inkscape:pageopacity="0"
     inkscape:pageshadow="2"
     inkscape:window-width="1366"
     inkscape:window-height="719"
     id="namedview78"
     showgrid="false"
     inkscape:zoom="22.5"
     inkscape:cx="11.4"
     inkscape:cy="11.822222"
     inkscape:window-x="0"
     inkscape:window-y="25"
     inkscape:window-maximized="1"
     inkscape:current-layer="svg2704"
     inkscape:snap-smooth-nodes="true"
     showguides="true"
     inkscape:guide-bbox="true" />
  <defs
     id="defs2706">
    <linearGradient
       id="linearGradient2883"
       x1="302.86"
       x2="302.86"
       y1="366.65"
       y2="609.51"
       gradientTransform="matrix(0.037768,0,0,0.01086,-1.6503,17.381)"
       gradientUnits="userSpaceOnUse">
      <stop
         id="stop5050"
         style="stop-opacity:0"
         offset="0" />
      <stop
         id="stop5056"
         offset=".5" />
      <stop
         id="stop5052"
         style="stop-opacity:0"
         offset="1" />
    </linearGradient>
    <radialGradient
       id="radialGradient2880"
       cx="605.71"
       cy="486.65"
       r="117.14"
       gradientTransform="matrix(0.022183,0,0,0.01086,7.7407,17.381)"
       gradientUnits="userSpaceOnUse"
       xlink:href="#linearGradient5060" />
    <linearGradient
       id="linearGradient5060">
      <stop
         id="stop5062"
         offset="0" />
      <stop
         id="stop5064"
         style="stop-opacity:0"
         offset="1" />
    </linearGradient>
    <radialGradient
       id="radialGradient2877"
       cx="605.71"
       cy="486.65"
       r="117.14"
       gradientTransform="matrix(-0.022183,0,0,0.01086,16.259,17.381)"
       gradientUnits="userSpaceOnUse"
       xlink:href="#linearGradient5060" />
    <linearGradient
       id="linearGradient2872"
       x1="53.991"
       x2="53.991"
       y1="87.896"
       y2="104.28"
       gradientTransform="matrix(0.19046,0,0,0.24853,-39.909201,-3.4847)"
       gradientUnits="userSpaceOnUse">
      <stop
         id="stop2223-6"
         style="stop-color:#7a7a7a"
         offset="0" />
      <stop
         id="stop2219-1"
         style="stop-color:#474747"
         offset="1" />
    </linearGradient>
    <linearGradient
       id="linearGradient8490"
       x1="7.0625"
       x2="24.688"
       y1="35.281"
       y2="35.281"
       gradientTransform="matrix(0.73759,0,0,0.53933,-22.2092,1.4719)"
       gradientUnits="userSpaceOnUse">
      <stop
         id="stop6311"
         offset="0" />
      <stop
         id="stop6313"
         style="stop-color:#bbb;stop-opacity:0"
         offset="1" />
    </linearGradient>
    <linearGradient
       id="linearGradient8487"
       x1="12.277"
       x2="12.222"
       y1="37.206"
       y2="33.759"
       gradientTransform="matrix(0.73759,0,0,0.53933,-2.796,2.187)"
       gradientUnits="userSpaceOnUse">
      <stop
         id="stop4238-4"
         style="stop-color:#eee"
         offset="0" />
      <stop
         id="stop4240-3"
         style="stop-color:#eee;stop-opacity:0"
         offset="1" />
    </linearGradient>
    <linearGradient
       id="linearGradient2869"
       x1="9.599"
       x2="4.459"
       y1="13.499"
       y2="8.3495"
       gradientTransform="matrix(0.98925,0,0,1.4696,-39.87097,-10.339)"
       gradientUnits="userSpaceOnUse">
      <stop
         id="stop3486-2"
         style="stop-color:#969696"
         offset="0" />
      <stop
         id="stop3488-0"
         style="stop-color:#b4b4b4"
         offset="1" />
    </linearGradient>
    <radialGradient
       id="radialGradient4072"
       cx="7.2203"
       cy="4.2333"
       r="12"
       gradientTransform="matrix(1.5194,0.0037157,-0.0030247,1.2368,-43.7373,0.067833)"
       gradientUnits="userSpaceOnUse">
      <stop
         id="stop7064-4"
         style="stop-color:#e6e6e6"
         offset="0" />
      <stop
         id="stop7060-2"
         style="stop-color:#c8c8c8"
         offset="1" />
    </radialGradient>
    <radialGradient
       id="radialGradient3248"
       cx="24"
       cy="42"
       r="21"
       gradientTransform="matrix(0.52381,0,1.4569e-8,0.21429,-20.57143,11.5)"
       gradientUnits="userSpaceOnUse">
      <stop
         id="stop6312-6"
         style="stop-color:#fff"
         offset="0" />
      <stop
         id="stop6314-6"
         style="stop-color:#fff;stop-opacity:0"
         offset="1" />
    </radialGradient>
    <radialGradient
       id="radialGradient8471"
       cx="141.75"
       cy="206.43"
       r="78.728"
       gradientTransform="matrix(0.18615,-0.0031402,0.0013777,0.18068,-15.013,-20.636)"
       gradientUnits="userSpaceOnUse"
       xlink:href="#linearGradient4035" />
    <radialGradient
       id="radialGradient8464"
       cx="142.62"
       cy="191.85"
       r="78.728"
       gradientTransform="matrix(0.092476,0,0,-0.087162,-1.5556,24.366)"
       gradientUnits="userSpaceOnUse">
      <stop
         id="stop7611-3"
         style="stop-color:#fff"
         offset="0" />
      <stop
         id="stop7677-2"
         style="stop-color:#e7e7e7"
         offset=".47026" />
      <stop
         id="stop7613-4"
         style="stop-color:#8c8c8c"
         offset=".67184" />
      <stop
         id="stop7617-3"
         style="stop-color:#ddd"
         offset=".83543" />
      <stop
         id="stop7615-6"
         style="stop-color:#a8a8a8"
         offset="1" />
    </radialGradient>
    <linearGradient
       id="linearGradient4035">
      <stop
         id="stop4037"
         style="stop-color:#f5f5f5"
         offset="0" />
      <stop
         id="stop4039"
         style="stop-color:#e7e7e7"
         offset=".47026" />
      <stop
         id="stop4041"
         style="stop-color:#8c8c8c"
         offset=".69349" />
      <stop
         id="stop4043"
         style="stop-color:#ddd"
         offset=".83543" />
      <stop
         id="stop4045"
         style="stop-color:#a8a8a8"
         offset="1" />
    </linearGradient>
    <radialGradient
       id="radialGradient8475"
       cx="127.32"
       cy="143.83"
       r="78.728"
       gradientTransform="matrix(0.10006,-0.023376,0.0082168,0.059717,-5.2741,-0.91135)"
       gradientUnits="userSpaceOnUse"
       xlink:href="#linearGradient4035" />
    <radialGradient
       id="radialGradient8498"
       cx="113.07"
       cy="97.588"
       r="2.5631"
       fx="113.67"
       fy="98"
       gradientTransform="matrix(2.4957,0,0,2.4957,-223.98,-53.226)"
       gradientUnits="userSpaceOnUse"
       xlink:href="#radialGradient4241" />
    <radialGradient
       id="radialGradient4241"
       cx="113.07"
       cy="97.588"
       r="2.5631"
       fx="113.67"
       fy="98"
       gradientUnits="userSpaceOnUse">
      <stop
         id="stop4243"
         style="stop-color:#eee"
         offset="0" />
      <stop
         id="stop4245"
         style="stop-color:#cecece"
         offset=".16" />
      <stop
         id="stop4247"
         style="stop-color:#888"
         offset=".4675" />
      <stop
         id="stop4249"
         style="stop-color:#555"
         offset="1" />
    </radialGradient>
    <linearGradient
       id="linearGradient2831"
       x1="8.5273"
       x2="57.411"
       y1="33.332"
       y2="33.332"
       gradientTransform="matrix(0,0.39055,-0.38724,0,22.223,-1.7244)"
       gradientUnits="userSpaceOnUse">
      <stop
         id="stop4224"
         style="stop-color:#fff"
         offset="0" />
      <stop
         id="stop4226"
         style="stop-color:#fff;stop-opacity:0"
         offset="1" />
    </linearGradient>
    <linearGradient
       id="linearGradient2834"
       x1="28.671"
       x2="1.31"
       y1="23.891"
       y2="23.891"
       gradientTransform="matrix(0,-0.33674,-0.33543,0,-19.986,15.582)"
       gradientUnits="userSpaceOnUse">
      <stop
         id="stop2266"
         style="stop-color:#d7e866"
         offset="0" />
      <stop
         id="stop2268"
         style="stop-color:#8cab2a"
         offset="1" />
    </linearGradient>
  </defs>
  <path
     style="fill:#e6e6e6;stroke:none;stroke-linejoin:round"
     d="M 4.5 0.5 C 3.66667 0.5 2.5993 1.1416379 2.5 1.9316406 L 0.5234375 17.669922 C 0.5084875 17.669922 0.5 17.673817 0.5 17.685547 L 23.5 17.685547 C 23.5 17.673787 23.491503 17.669922 23.476562 17.669922 L 21.5 1.9316406 C 21.40074 1.1416379 20.3333 0.5 19.5 0.5 L 4.5 0.5 z M 8.5 2.59375 L 15.5 2.59375 L 15.5 8.59375 L 18.611328 8.59375 L 12 15.59375 L 5.3886719 8.59375 L 8.5 8.59375 L 8.5 2.59375 z M 23.5 18.5 L 0.5 18.501953 C 0.96439 22.546313 0.73325069 22.482422 1.6503906 22.482422 C 8.9673906 22.482422 21.973894 22.530652 22.304688 22.482422 C 23.149207 22.482375 23.03361 21.88 23.5 18.5 z M 6 18.910156 A 1.7111111 1.5777776 0 0 1 7.7109375 20.488281 A 1.7111111 1.5777776 0 0 1 6 22.066406 A 1.7111111 1.5777776 0 0 1 4.2890625 20.488281 A 1.7111111 1.5777776 0 0 1 6 18.910156 z M 12 18.910156 A 1.7111111 1.5777776 0 0 1 13.710938 20.488281 A 1.7111111 1.5777776 0 0 1 12 22.066406 A 1.7111111 1.5777776 0 0 1 10.289062 20.488281 A 1.7111111 1.5777776 0 0 1 12 18.910156 z M 18 18.910156 A 1.7111111 1.5777776 0 0 1 19.710938 20.488281 A 1.7111111 1.5777776 0 0 1 18 22.066406 A 1.7111111 1.5777776 0 0 1 16.289062 20.488281 A 1.7111111 1.5777776 0 0 1 18 18.910156 z "
     id="path906" />
</svg>
